X: 915
T: The Black Rogue.
B:O'Neill's 915
N:"collected by J. O'Neill."
Z:Transcribed by Tom Keays (htkeays@mailbox.syr.edu)
Z:abc 1.6
M:6/8
R:Jig
L:1/8
K:Em
g | dBB BAB | dBB B2g | dBB BAB | GEE E2g |
dBB BAB | dBB BAG | ABc BAB | GEE E2 :|
|| d | gfg aga | bge edB | gfg aga | bge (e>fg/2a/2) |
bag agf | gef g2e | dBB BAB | GEE E2 :|


